tools/download-figma-icons/icons/solid/monkey-blind.svg

<svg width="24" height="24" viewBox="0 0 24 24" fill="none" xmlns="http://www.w3.org/2000/svg">
<path d="M19.38 4.07066C19.23 4.07066 19.08 4.10064 18.9375 4.11563C17.01 2.43683 14.5725 1.5 12 1.5C10.71 1.5 9.465 1.73233 8.2875 2.18201C7.1175 2.6242 6.03 3.27623 5.0625 4.11563C4.92 4.10064 4.77 4.07066 4.62 4.07066C2.0775 4.07066 0 6.13919 0 8.68737C0 9.24197 0.0975 9.78908 0.2925 10.2987C0.48 10.8009 0.7575 11.2655 1.11 11.6777C1.1775 10.0289 1.8525 9.25696 1.995 9.10707L2.3025 8.79229L2.745 8.76981C3.585 8.73983 4.2675 9.18951 4.7625 9.83405C6.45 8.14026 7.47 7.86296 8.1375 7.69058C10.2225 7.15846 11.2425 8.49251 11.37 8.67987C11.37 8.67987 11.3775 8.67987 11.3775 8.69486C11.4 8.71735 11.4225 8.73233 11.4375 8.75482C11.49 8.81478 11.535 8.86724 11.595 8.90471H11.6025C11.6025 8.90471 11.625 8.9197 11.64 8.9272C11.7075 8.96467 11.7825 8.99465 11.865 9.00964C11.895 9.00964 11.9175 9.00964 11.9475 9.00964C12.015 9.00964 12.0825 9.00964 12.15 9.00964C12.18 9.00964 12.21 8.98715 12.2475 8.97216C12.3 8.95717 12.3525 8.94218 12.3975 8.91221C12.405 8.91221 12.405 8.91221 12.4125 8.89722C12.4425 8.87473 12.465 8.84475 12.495 8.82227C12.54 8.7773 12.5925 8.73983 12.6225 8.69486C12.6225 8.69486 12.63 8.69486 12.63 8.67987C12.75 8.49251 13.77 7.16595 15.8625 7.69058C16.5375 7.86296 17.7525 8.27516 19.2375 9.83405C19.7325 9.18951 20.43 8.73983 21.255 8.76981L21.6975 8.79229L22.005 9.10707C22.1475 9.25696 22.8225 10.0289 22.89 11.6777C23.2425 11.2655 23.52 10.8009 23.7075 10.2987C23.9025 9.78158 24 9.23448 24 8.68737C24 6.14668 21.9225 4.07816 19.38 4.07816V4.07066Z" fill="black"/>
<path d="M12 19.712C9.73496 19.712 9.78746 17.3887 9.78746 17.3887H14.2125C14.2125 17.3887 14.265 19.712 12 19.712Z" fill="black"/>
<path d="M12.375 15.2222H11.625C11.2125 15.2222 10.875 15.5594 10.875 15.9716C10.875 16.3838 11.2125 16.7211 11.625 16.7211H12.375C12.7875 16.7211 13.125 16.3838 13.125 15.9716C13.125 15.5594 12.7875 15.2222 12.375 15.2222Z" fill="black"/>
<path d="M20.7449 16.3844C21.4049 15.0654 21.7724 13.5889 21.7799 12.0225C21.7799 10.5086 21.2099 9.91653 21.2099 9.91653C20.0324 9.86407 19.4624 11.9626 19.4624 11.9626C16.9199 7.9979 13.1174 8.14779 13.9349 12.6146C14.7374 16.999 18.4649 17.7409 18.4649 17.7409L18.5549 18.1681C16.8674 19.9519 14.4974 21.0011 12.0074 21.0011C9.51742 21.0011 7.15492 19.9519 5.46742 18.1681L5.55742 17.7484C5.55742 17.7484 9.28492 16.999 10.0874 12.6221C10.9049 8.15529 7.10242 8.0054 4.55992 11.9701C4.55992 11.9701 3.98992 9.87156 2.81242 9.92402C2.81242 9.92402 2.23492 10.5161 2.24242 12.03C2.24242 13.5964 2.61742 15.0803 3.27742 16.3919C3.27742 16.3919 3.14242 16.6542 2.10742 18.7452C3.01492 20.3041 4.76992 21.5407 4.76992 21.5407L5.11492 19.9069C7.00492 21.5557 9.44992 22.5 12.0224 22.5C14.5949 22.5 17.0324 21.5557 18.9299 19.8994L19.2749 21.5407C19.2749 21.5407 21.0299 20.3041 21.9374 18.7452C20.9024 16.6542 20.7674 16.3994 20.7674 16.3994L20.7449 16.3844Z" fill="black"/>
</svg>

<svg xmlns="http://www.w3.org/2000/svg" width="24" height="24" fill="none" viewBox="0 0 24 24"><path fill="currentColor" d="M19.38 4.07c-.15 0-.3.03-.442.046A10.53 10.53 0 0 0 12 1.5c-1.29 0-2.535.232-3.713.682a10.7 10.7 0 0 0-3.225 1.934C4.92 4.1 4.77 4.07 4.62 4.07A4.625 4.625 0 0 0 0 8.687a4.6 4.6 0 0 0 1.11 2.99c.067-1.648.742-2.42.885-2.57l.308-.315.442-.022c.84-.03 1.523.42 2.018 1.064C6.45 8.14 7.47 7.863 8.137 7.691c2.085-.533 3.105.802 3.233.989 0 0 .008 0 .008.015.022.022.044.037.06.06.052.06.097.112.157.15h.007s.023.015.038.022a.7.7 0 0 0 .225.083h.285c.03 0 .06-.023.098-.038a.5.5 0 0 0 .15-.06c.007 0 .007 0 .014-.015.03-.022.053-.052.083-.075.045-.045.098-.082.128-.127 0 0 .007 0 .007-.015.12-.187 1.14-1.514 3.233-.99.675.173 1.89.585 3.375 2.144.495-.644 1.192-1.094 2.017-1.064l.443.022.307.315c.143.15.818.922.885 2.57A4.6 4.6 0 0 0 24 8.688c0-2.54-2.078-4.609-4.62-4.609zM12 19.712c-2.265 0-2.213-2.323-2.213-2.323h4.426s.052 2.323-2.213 2.323m.375-4.49h-.75a.75.75 0 0 0-.75.75c0 .412.338.75.75.75h.75c.412 0 .75-.338.75-.75a.75.75 0 0 0-.75-.75"/><path fill="currentColor" d="M20.745 16.384a9.8 9.8 0 0 0 1.035-4.361c0-1.514-.57-2.106-.57-2.106-1.178-.053-1.748 2.046-1.748 2.046-2.542-3.965-6.345-3.815-5.527.652.802 4.384 4.53 5.126 4.53 5.126l.09.427a9.04 9.04 0 0 1-6.548 2.833 9.02 9.02 0 0 1-6.54-2.833l.09-.42s3.728-.749 4.53-5.126c.818-4.467-2.985-4.617-5.527-.652 0 0-.57-2.098-1.748-2.046 0 0-.577.592-.57 2.106 0 1.566.375 3.05 1.035 4.362 0 0-.135.262-1.17 2.353.908 1.56 2.663 2.796 2.663 2.796l.345-1.634a10.5 10.5 0 0 0 6.907 2.593c2.573 0 5.01-.944 6.908-2.6l.345 1.64s1.755-1.236 2.662-2.795c-1.035-2.09-1.17-2.346-1.17-2.346z"/></svg>
